!!!SOCIAL_FUNCTION:	songs of war
!!!PDT:	1913
!!!OTL: No_29_Drum_Song.krn
!!!REG: Great_Lakes
!!!LANG: Non-Tone
!!!LING_GROUP: Algonquin
**kern	**kern
*staff2	*staff1
*clefF4	*clefF4
*k[]	*k[]
*M2/4	*M2/4
8r	16f\LL
.	16f\JJ
=1	=1
4GG^/	8.f\L
.	16f\Jk
4GG^/	8.f\L
.	16f\Jk
=2	=2
4GG^/	8.f\L
.	16f\Jk
4GG^/	8.e\L
.	16e\Jk
=3	=3
2r	4e\
.	4c\
=4	=4
2r	8.e\L
.	16e\Jk
.	4c\
=5||	=5||
*M3/4	*M3/4
2.r	4A\
.	2A\
=6||	=6||
*M2/4	*M2/4
2r	4A\
.	[4A\
=7	=7
2r	4.A\]
.	16e\LL
.	16e\JJ
=8	=8
2r	8.e\L
.	16e\Jk
.	8.c\L
.	16c\Jk
=9	=9
2r	8.c\L
.	16c\Jk
.	8.c\L
.	16c\Jk
=10	=10
2r	(16c\LK
.	8.A\J)
.	4A\
=11	=11
2r	8.B-\L
.	16B-\Jk
.	4c\
=12||	=12||
*M3/4	*M3/4
2.r	4A\
.	4.A\
.	16F\LL
.	16F\JJ
=13||	=13||
*M2/4	*M2/4
2r	8.F\L
.	16E\Jk
.	8.E\L
.	16E\Jk
=14||	=14||
*M3/4	*M3/4
2.r	8.E\L
.	16E\Jk
.	8.E\L
.	16E\Jk
.	4C/
=15||	=15||
*M2/4	*M2/4
2r	8.E\L
.	16E\Jk
.	4C/
=16||	=16||
*M3/4	*M3/4
2.r	4AA/
.	2AA/
==	==
*-	*-
